img/icones/servicos/upgrade-icone.svg

<svg width="24" height="24" viewBox="0 0 24 24" fill="none" xmlns="http://www.w3.org/2000/svg">
<path d="M16 19C16 19.55 15.55 20 15 20H9C8.45 20 8 19.55 8 19C8 18.45 8.45 18 9 18H15C15.55 18 16 18.45 16 19ZM11 7.99003V15C11 15.55 11.45 16 12 16C12.55 16 13 15.55 13 15V7.99003H14.79C15.24 7.99003 15.46 7.45003 15.14 7.14003L12.35 4.36003C12.15 4.17003 11.84 4.17003 11.64 4.36003L8.86 7.14003C8.54 7.45003 8.76 7.99003 9.21 7.99003H11Z" fill="url(#paint0_linear_434_178)"/>
<defs>
<linearGradient id="paint0_linear_434_178" x1="12" y1="4.53318" x2="17.7283" y2="17.0662" gradientUnits="userSpaceOnUse">
<stop stop-color="#345EC2"/>
<stop offset="1" stop-color="#113896"/>
</linearGradient>
</defs>
</svg>

<svg width="24" height="24" fill="none" xmlns="http://www.w3.org/2000/svg"><path d="M16 19c0 .55-.45 1-1 1H9c-.55 0-1-.45-1-1s.45-1 1-1h6c.55 0 1 .45 1 1ZM11 7.99V15c0 .55.45 1 1 1s1-.45 1-1V7.99h1.79c.45 0 .67-.54.35-.85l-2.79-2.78a.513.513 0 0 0-.71 0L8.86 7.14c-.32.31-.1.85.35.85H11Z" fill="url(#a)"/><defs><linearGradient id="a" x1="12" y1="4.533" x2="17.728" y2="17.066" gradientUnits="userSpaceOnUse"><stop stop-color="#345EC2"/><stop offset="1" stop-color="#113896"/></linearGradient></defs></svg>
